icon/lg/woocommerce.svg

<?xml version="1.0" encoding="UTF-8"?>
<svg viewBox="0 0 512 104" version="1.1" xmlns="http://www.w3.org/2000/svg" xmlns:xlink="http://www.w3.org/1999/xlink" preserveAspectRatio="xMidYMid" height="1em" width="1em">
  <g fill-rule="evenodd">
    <path d="M157.26652,0 L16.0962942,0 C7.16234734,0 -0.0698778538,7.30311363 0.000509457557,16.1661508 L0.000509457557,70.0533805 C0.000509457557,78.9871009 7.23325707,86.2194407 16.167204,86.2194407 L83.0296918,86.2194407 L113.589748,103.236418 L106.641048,86.2194407 L157.26652,86.2194407 C166.200694,86.2194407 173.43258,78.9871009 173.43258,70.0533805 L173.43258,16.1661508 C173.43258,7.23220389 166.200694,0 157.26652,0 Z M13.1186291,12.4791165 C11.1332925,12.6209359 9.64427866,13.329988 8.651633,14.677137 C7.65898734,15.9534216 7.30448397,17.5842096 7.51716787,19.4277267 C11.700525,46.0170195 15.6002433,63.9555965 19.2163679,73.244092 C20.6344719,76.6473062 22.2652599,78.2784566 24.1796868,78.1366372 C27.1576238,77.9236814 30.7028387,73.8113699 34.8861958,65.7992496 C37.0842164,61.2610265 40.4876571,54.4545982 45.0964273,45.3786053 C48.9250546,58.7794124 54.1719218,68.8481416 60.7663006,75.5838867 C62.6099537,77.498223 64.52429,78.3491398 66.36749,78.2073204 C67.9986404,78.0655009 69.2745626,77.2145841 70.1254794,75.6545699 C70.8345767,74.3075115 71.1182157,72.7474973 70.9763962,70.9749805 C70.5509378,64.5228743 71.1893519,55.5180177 72.9618688,43.9605919 C74.8050688,32.048708 77.0741803,23.4692644 79.8394334,18.3641713 C80.4067112,17.3006159 80.6192139,16.2370152 80.5485307,14.9607759 C80.4067112,13.3299427 79.6976139,11.9827936 78.3505555,10.9192382 C77.0034971,9.85568283 75.5141661,9.35936 73.8834688,9.50113416 C71.827313,9.64295363 70.2672988,10.6355993 69.2038794,12.6209359 C64.8079289,20.6331016 61.6879006,33.6085862 59.8447006,51.6182088 C57.1501307,44.8114634 54.8810192,36.7992524 53.1085024,27.3689827 C52.3287218,23.1856708 50.4143856,21.2003342 47.2943572,21.4130634 C45.1672918,21.5548375 43.3947296,22.9729416 41.9766256,25.667285 L26.4486171,55.2343788 C23.8960479,44.9532375 21.4852981,32.4032113 19.2872776,17.5842096 C18.7909548,13.8972205 16.7347084,12.1954775 13.1186291,12.4791165 Z M149.750994,17.5844361 C154.785359,18.6480368 158.543348,21.3423802 161.095646,25.809331 C163.364757,29.6381848 164.49886,34.246955 164.49886,39.7774612 C164.49886,47.0804389 162.65566,53.7455009 158.968354,59.843285 C154.714223,66.9338053 149.183717,70.4788389 142.306152,70.4788389 C141.100913,70.4788389 139.824538,70.3370195 138.477026,70.0533805 C133.443115,68.9899611 129.685125,66.2958442 127.132375,61.8287575 C124.863717,57.9289487 123.729161,53.2493593 123.729161,47.7895363 C123.729161,40.4865133 125.572814,33.8214966 129.259667,27.7946676 C133.584934,20.7042379 139.11544,17.159023 145.922322,17.159023 C147.127561,17.159023 148.403936,17.3008425 149.750994,17.5844361 Z M146.773239,55.9434761 C149.396672,53.6036814 151.169189,50.129331 152.161925,45.4497416 C152.445564,43.8189989 152.658067,42.0463915 152.658067,40.2028743 C152.658067,38.1466733 152.232609,35.9486527 151.381692,33.7505869 C150.318272,30.9853338 148.900078,29.4963653 147.198244,29.1418166 C144.645947,28.6454938 142.164332,30.0635979 139.824538,33.537903 C137.910201,36.2322464 136.704509,39.0684092 136.066548,41.9754818 C135.711773,43.606315 135.569954,45.3790584 135.569954,47.1515752 C135.569954,49.207731 135.995412,51.4057062 136.846329,53.6036814 C137.910201,56.3689345 139.327943,57.8578124 141.029777,58.2125876 C142.802294,58.5669097 144.71663,57.7871292 146.773239,55.9434761 Z M116.63864,25.809331 C114.08589,21.3423802 110.257217,18.6480368 105.293989,17.5844361 C103.946478,17.3008425 102.670555,17.159023 101.464863,17.159023 C94.6584351,17.159023 89.1279289,20.7042379 84.8026617,27.7946676 C81.1153555,33.8214966 79.2721555,40.4865133 79.2721555,47.7895363 C79.2721555,53.2493593 80.4067112,57.9289487 82.6753696,61.8287575 C85.2281201,66.2958442 88.9861095,68.9899611 94.020021,70.0533805 C95.3670794,70.3370195 96.6434546,70.4788389 97.8491466,70.4788389 C104.726711,70.4788389 110.257217,66.9338053 114.511348,59.843285 C118.198655,53.7455009 120.041855,47.0804389 120.041855,39.7774612 C120.041855,34.246955 118.907299,29.6381848 116.63864,25.809331 Z M107.704467,45.4497416 C106.712184,50.129331 104.939214,53.6036814 102.31578,55.9434761 C100.259625,57.7871292 98.3452882,58.5669097 96.5727714,58.2125876 C94.8709378,57.8578124 93.4527431,56.3689345 92.3893236,53.6036814 C91.5384068,51.4057062 91.1129484,49.207731 91.1129484,47.1515752 C91.1129484,45.3790584 91.2547679,43.606315 91.6095431,41.9754818 C92.2475041,39.0684092 93.4527431,36.2322464 95.3670794,33.537903 C97.7073272,30.0635979 100.188941,28.6454938 102.741239,29.1418166 C104.443072,29.4963653 105.861267,30.9853338 106.924686,33.7505869 C107.775603,35.9486527 108.201062,38.1466733 108.201062,40.2028743 C108.201062,42.0463915 108.059242,43.8189989 107.704467,45.4497416 Z" fill="#7F54B3"/>
    <path d="M191.37161,25.1708262 C186.620885,29.8505062 184.28109,35.8064255 184.28109,43.0386747 C184.28109,50.767292 186.620885,57.0775788 191.300927,61.8283044 C195.980517,66.5790301 202.078301,68.989508 209.664963,68.989508 C211.862938,68.989508 214.344552,68.6351858 217.039122,67.8549522 L217.039122,56.3684814 C214.557508,57.0775788 212.430216,57.432354 210.586563,57.432354 C206.828573,57.432354 203.850817,56.1559788 201.581706,53.6743646 C199.313048,51.1216142 198.178492,47.7184 198.178492,43.3931781 C198.178492,39.3516404 199.313048,36.0191547 201.511023,33.4665855 C203.779681,30.8431519 206.544934,29.5668673 209.948601,29.5668673 C212.146577,29.5668673 214.486371,29.9213706 217.039122,30.6304227 L217.039122,19.1439519 C214.699327,18.5058096 212.075894,18.2221706 209.310187,18.2221706 C202.078301,18.1512609 196.122336,20.4911462 191.37161,25.1708262 Z M240.579341,18.1512609 C234.056099,18.1512609 228.951051,20.3493267 225.263745,24.6744581 C221.576892,28.9996347 219.804375,35.0974188 219.804375,42.8968552 C219.804375,51.3345699 221.647575,57.7866761 225.263745,62.2537628 C228.879915,66.7208496 234.197918,68.989508 241.146619,68.989508 C247.882364,68.989508 253.058095,66.7208496 256.674265,62.2537628 C260.290435,57.7866761 262.134088,51.4763894 262.134088,43.3931781 C262.134088,35.3101027 260.290435,29.0705444 256.603582,24.6744581 C252.845593,20.3493267 247.527589,18.1512609 240.579341,18.1512609 Z M246.180531,55.021423 C244.904155,57.0068956 242.989819,57.9996319 240.579341,57.9996319 C238.31023,57.9996319 236.608396,57.0068956 235.403157,55.021423 C234.197918,53.0359504 233.63064,49.0654584 233.63064,43.0386747 C233.63064,33.7502244 235.970435,29.1414088 240.721161,29.1414088 C245.684389,29.1414088 248.236686,33.8211342 248.236686,43.2514039 C248.166003,49.0654584 247.456906,53.0359504 246.180531,55.021423 Z M297.160778,19.4984552 L294.608028,30.346829 C293.970067,33.1120821 293.332106,35.948245 292.764828,38.8553175 L291.346633,46.3713416 C289.999575,38.8553175 288.155922,29.9213706 285.816127,19.4984552 L269.366428,19.4984552 L263.197508,67.784269 L275.534895,67.784269 L278.867426,34.5301409 L287.305005,67.784269 L296.097359,67.784269 L304.180163,34.6010506 L307.654513,67.784269 L320.559178,67.784269 L314.035936,19.4984552 L297.160778,19.4984552 Z M356.22383,19.4984552 L353.671532,30.346829 C353.033118,33.1120821 352.395157,35.948245 351.827879,38.8553175 L350.409685,46.3713416 C349.062626,38.8553175 347.218973,29.9213706 344.879178,19.4984552 L328.429479,19.4984552 L322.261012,67.784269 L334.597947,67.784269 L337.930478,34.5301409 L346.368056,67.784269 L355.16041,67.784269 L363.172531,34.6010506 L366.646881,67.784269 L379.551547,67.784269 L373.028304,19.4984552 L356.22383,19.4984552 Z M396.355568,48.7111363 L407.913175,48.7111363 L407.913175,38.7134981 L396.355568,38.7134981 L396.355568,29.8504609 L409.685692,29.8504609 L409.685692,19.569365 L383.309536,19.569365 L383.309536,67.8549522 L409.756828,67.8549522 L409.756828,57.5741735 L396.355568,57.5741735 L396.355568,48.7111363 Z M446.484899,41.0533381 C447.83241,38.8553175 448.541055,36.5863873 448.541055,34.2465473 C448.541055,29.7086867 446.768538,26.0925621 443.223504,23.4690832 C439.678017,20.8456496 434.785925,19.4984552 428.688141,19.4984552 L413.514364,19.4984552 L413.514364,67.784269 L426.560849,67.784269 L426.560849,45.8040637 L426.773805,45.8040637 L437.338223,67.784269 L451.093805,67.784269 L440.670754,46.0165664 C443.152368,44.8821919 445.13784,43.2513586 446.484899,41.0533381 Z M426.490166,40.2733763 L426.490166,28.7869055 C429.609741,28.8578152 431.807717,29.3541381 433.155228,30.346829 C434.502286,31.3394747 435.140248,32.8993529 435.140248,35.1682832 C435.140248,38.5007688 432.233175,40.2025119 426.490166,40.2733763 Z M456.19704,25.1708262 C451.448127,29.8505062 449.108332,35.8064255 449.108332,43.0386747 C449.108332,50.767292 451.448127,57.0775788 456.129076,61.8283044 C460.809571,66.5790301 466.903731,68.989508 474.493111,68.989508 C476.690633,68.989508 479.173607,68.6351858 481.865005,67.8549522 L481.865005,56.3684814 C479.386563,57.0775788 477.257005,57.432354 475.412899,57.432354 C471.656722,57.432354 468.679872,56.1559788 466.409855,53.6743646 C464.139837,51.1216142 463.007094,47.7184 463.007094,43.3931781 C463.007094,39.3516404 464.139837,36.0191547 466.337359,33.4665855 C468.607377,30.8431519 471.371271,29.5668673 474.774032,29.5668673 C476.971554,29.5668673 479.314067,29.9213706 481.865005,30.6304227 L481.865005,19.1439519 C479.527023,18.5058096 476.903589,18.2221706 474.139695,18.2221706 C466.976226,18.1512609 460.950032,20.4911462 456.19704,25.1708262 Z M498.529925,57.432354 L498.529925,48.64 L510.083908,48.64 L510.083908,38.6425883 L498.529925,38.6425883 L498.529925,29.7795965 L511.928014,29.7795965 L511.928014,19.4984552 L485.553217,19.4984552 L485.553217,67.784269 L512.000509,67.784269 L512.000509,57.5030372 L498.529925,57.5030372 L498.529925,57.432354 Z" fill="#000000"/>
  </g>
</svg>

<svg width="512" height="104" xmlns="http://www.w3.org/2000/svg" preserveAspectRatio="xMidYMid"><g fill-rule="evenodd"><path d="M157.267 0H16.097C7.161 0-.07 7.303 0 16.166v53.887C0 78.987 7.233 86.22 16.167 86.22H83.03l30.56 17.017-6.949-17.017h50.626c8.934 0 16.166-7.232 16.166-16.166V16.166C173.433 7.232 166.2 0 157.267 0ZM13.119 12.48c-1.986.14-3.475.85-4.467 2.197-.993 1.276-1.348 2.907-1.135 4.75 4.184 26.59 8.083 44.529 11.7 53.817 1.417 3.403 3.048 5.034 4.963 4.893 2.978-.213 6.523-4.326 10.706-12.338 2.198-4.538 5.602-11.344 10.21-20.42 3.83 13.4 9.076 23.47 15.67 30.205 1.844 1.914 3.758 2.765 5.601 2.623 1.632-.141 2.908-.992 3.758-2.552.71-1.347.993-2.908.851-4.68-.425-6.452.213-15.457 1.986-27.014 1.843-11.912 4.112-20.492 6.877-25.597.568-1.063.78-2.127.71-3.403-.142-1.631-.851-2.978-2.198-4.042-1.348-1.063-2.837-1.56-4.468-1.418-2.056.142-3.616 1.135-4.68 3.12-4.395 8.012-7.515 20.988-9.358 38.997C57.15 44.811 54.88 36.8 53.109 27.37c-.78-4.183-2.695-6.169-5.815-5.956-2.127.142-3.9 1.56-5.317 4.254L26.449 55.234c-2.553-10.28-4.964-22.83-7.162-37.65-.496-3.687-2.552-5.389-6.168-5.105Zm136.632 5.104c5.034 1.064 8.792 3.758 11.345 8.225 2.269 3.83 3.403 8.438 3.403 13.968 0 7.303-1.843 13.969-5.53 20.066-4.255 7.09-9.785 10.636-16.663 10.636-1.205 0-2.481-.142-3.829-.426-5.034-1.063-8.792-3.757-11.345-8.224-2.268-3.9-3.403-8.58-3.403-14.04 0-7.302 1.844-13.968 5.53-19.994 4.326-7.09 9.856-10.636 16.663-10.636 1.206 0 2.482.142 3.829.425Zm-2.978 38.36c2.624-2.34 4.396-5.815 5.389-10.494.284-1.631.496-3.404.496-5.247 0-2.056-.425-4.254-1.276-6.452-1.064-2.766-2.482-4.255-4.184-4.61-2.552-.496-5.034.923-7.373 4.397-1.915 2.694-3.12 5.53-3.758 8.437-.355 1.631-.497 3.404-.497 5.177 0 2.056.425 4.254 1.276 6.452 1.064 2.765 2.482 4.254 4.184 4.609 1.772.354 3.687-.426 5.743-2.27ZM116.64 25.808c-2.553-4.467-6.382-7.161-11.345-8.225-1.348-.283-2.623-.425-3.83-.425-6.806 0-12.336 3.545-16.661 10.636-3.688 6.026-5.53 12.692-5.53 19.995 0 5.46 1.134 10.139 3.402 14.039 2.553 4.467 6.311 7.161 11.345 8.224 1.347.284 2.623.426 3.83.426 6.877 0 12.407-3.545 16.661-10.636 3.688-6.097 5.53-12.763 5.53-20.066 0-5.53-1.134-10.139-3.402-13.968Zm-8.935 19.64c-.992 4.68-2.765 8.155-5.388 10.494-2.056 1.844-3.97 2.624-5.743 2.27-1.702-.355-3.12-1.844-4.184-4.61-.85-2.197-1.276-4.395-1.276-6.451 0-1.773.142-3.546.497-5.177.638-2.907 1.843-5.743 3.757-8.437 2.34-3.474 4.822-4.893 7.374-4.396 1.702.354 3.12 1.843 4.184 4.609.85 2.198 1.276 4.396 1.276 6.452 0 1.843-.142 3.616-.497 5.247Z" fill="#7F54B3"/><path d="M191.372 25.17c-4.751 4.68-7.09 10.636-7.09 17.869 0 7.728 2.339 14.039 7.019 18.79 4.68 4.75 10.777 7.16 18.364 7.16 2.198 0 4.68-.354 7.374-1.134V56.368c-2.481.71-4.609 1.064-6.452 1.064-3.758 0-6.736-1.276-9.005-3.758-2.269-2.552-3.404-5.956-3.404-10.28 0-4.042 1.135-7.375 3.333-9.927 2.269-2.624 5.034-3.9 8.438-3.9 2.198 0 4.537.354 7.09 1.063V19.144c-2.34-.638-4.963-.922-7.729-.922-7.232-.07-13.188 2.27-17.938 6.949Zm49.207-7.019c-6.523 0-11.628 2.198-15.315 6.523-3.687 4.326-5.46 10.423-5.46 18.223 0 8.438 1.844 14.89 5.46 19.357 3.616 4.467 8.934 6.736 15.883 6.736 6.735 0 11.911-2.27 15.527-6.736 3.616-4.467 5.46-10.778 5.46-18.86 0-8.084-1.844-14.323-5.53-18.72-3.758-4.325-9.076-6.523-16.025-6.523Zm5.602 36.87C244.904 57.007 242.99 58 240.579 58c-2.269 0-3.97-.993-5.176-2.979-1.205-1.985-1.772-5.956-1.772-11.982 0-9.289 2.34-13.898 7.09-13.898 4.963 0 7.516 4.68 7.516 14.11-.071 5.814-.78 9.785-2.056 11.77Zm50.98-35.523-2.553 10.849c-.638 2.765-1.276 5.601-1.843 8.508l-1.418 7.516c-1.347-7.516-3.191-16.45-5.53-26.873h-16.45l-6.17 48.286h12.338l3.332-33.254 8.438 33.254h8.792l8.083-33.183 3.475 33.183h12.904l-6.523-48.286H297.16Zm59.063 0-2.552 10.849c-.639 2.765-1.277 5.601-1.844 8.508l-1.418 7.516c-1.347-7.516-3.191-16.45-5.53-26.873h-16.45l-6.169 48.286h12.337l3.332-33.254 8.438 33.254h8.792l8.013-33.183 3.474 33.183h12.905l-6.524-48.286h-16.804Zm40.132 29.213h11.557v-9.998h-11.557V29.85h13.33V19.57H383.31v48.285h26.447v-10.28h-13.401V48.71Zm50.129-7.658c1.347-2.198 2.056-4.467 2.056-6.806 0-4.538-1.772-8.154-5.317-10.778-3.546-2.623-8.438-3.97-14.536-3.97h-15.174v48.285h13.047v-21.98h.213l10.564 21.98h13.756L440.67 46.017c2.481-1.135 4.467-2.766 5.814-4.964Zm-19.995-.78V28.787c3.12.07 5.318.567 6.665 1.56 1.347.992 1.985 2.552 1.985 4.821 0 3.333-2.907 5.035-8.65 5.105Zm29.707-15.102c-4.749 4.68-7.089 10.635-7.089 17.868 0 7.728 2.34 14.039 7.021 18.79 4.68 4.75 10.775 7.16 18.364 7.16 2.198 0 4.68-.354 7.372-1.134V56.368c-2.478.71-4.608 1.064-6.452 1.064-3.756 0-6.733-1.276-9.003-3.758-2.27-2.552-3.403-5.956-3.403-10.28 0-4.042 1.133-7.375 3.33-9.927 2.27-2.624 5.034-3.9 8.437-3.9 2.198 0 4.54.354 7.091 1.063V19.144c-2.338-.638-4.961-.922-7.725-.922-7.164-.07-13.19 2.27-17.943 6.949Zm42.333 32.261V48.64h11.554v-9.997H498.53V29.78h13.398V19.498h-26.375v48.286h26.448V57.503H498.53v-.07Z"/></g></svg>
